svg/part/hand_grab_fill.svg

<?xml version="1.0" encoding="UTF-8"?>
<svg width="24px" height="24px" viewBox="0 0 24 24" version="1.1" xmlns="http://www.w3.org/2000/svg" xmlns:xlink="http://www.w3.org/1999/xlink">
    <title>hand_grab_fill</title>
    <g id="Icon" stroke="none" stroke-width="1" fill="none" fill-rule="evenodd">
        <g id="Part" transform="translate(-96.000000, -144.000000)" fill-rule="nonzero">
            <g id="hand_grab_fill" transform="translate(96.000000, 144.000000)">
                <path d="M24,0 L24,24 L0,24 L0,0 L24,0 Z M12.5934901,23.257841 L12.5819402,23.2595131 L12.5108777,23.2950439 L12.4918791,23.2987469 L12.4918791,23.2987469 L12.4767152,23.2950439 L12.4056548,23.2595131 C12.3958229,23.2563662 12.3870493,23.2590235 12.3821421,23.2649074 L12.3780323,23.275831 L12.360941,23.7031097 L12.3658947,23.7234994 L12.3769048,23.7357139 L12.4804777,23.8096931 L12.4953491,23.8136134 L12.4953491,23.8136134 L12.5071152,23.8096931 L12.6106902,23.7357139 L12.6232938,23.7196733 L12.6232938,23.7196733 L12.6266527,23.7031097 L12.609561,23.275831 C12.6075724,23.2657013 12.6010112,23.2592993 12.5934901,23.257841 L12.5934901,23.257841 Z M12.8583906,23.1452862 L12.8445485,23.1473072 L12.6598443,23.2396597 L12.6498822,23.2499052 L12.6498822,23.2499052 L12.6471943,23.2611114 L12.6650943,23.6906389 L12.6699349,23.7034178 L12.6699349,23.7034178 L12.678386,23.7104931 L12.8793402,23.8032389 C12.8914285,23.8068999 12.9022333,23.8029875 12.9078286,23.7952264 L12.9118235,23.7811639 L12.8776777,23.1665331 C12.8752882,23.1545897 12.8674102,23.1470016 12.8583906,23.1452862 L12.8583906,23.1452862 Z M12.1430473,23.1473072 C12.1332178,23.1423925 12.1221763,23.1452606 12.1156365,23.1525954 L12.1099173,23.1665331 L12.0757714,23.7811639 C12.0751323,23.7926639 12.0828099,23.8018602 12.0926481,23.8045676 L12.108256,23.8032389 L12.3092106,23.7104931 L12.3186497,23.7024347 L12.3186497,23.7024347 L12.3225043,23.6906389 L12.340401,23.2611114 L12.337245,23.2485176 L12.337245,23.2485176 L12.3277531,23.2396597 L12.1430473,23.1473072 Z" id="MingCute"></path>
                <path d="M15.5,5 C16.73,5 17.7525,5.88823 17.9611,7.05823 C18.1347,7.0201 18.315,7 18.5,7 C19.8807,7 21,8.11929 21,9.5 L21,12 C21,16.4183 17.4183,20 13,20 L12.3263,20 C9.29609,20 6.52599,18.288 5.17085,15.5777 L2.32921,9.89443 C1.96875,9.17351 2.23578,8.2109 3.07624,7.86637 C4.11856,7.43909 5.10996,7.35949 6.13061,7.87812 C6.42689,8.02868 6.71472,8.22518 7.00003,8.46161 L7.00003,7.5 C7.00003,6.11929 8.11932,5 9.50003,5 C9.81265,5 10.1119,5.05738 10.3877,5.16218 C10.8311,4.46363 11.6114,4 12.5,4 C13.3887,4 14.169,4.46363 14.6123,5.16218 C14.8882,5.05738 15.1874,5 15.5,5 Z" id="路径" fill="#09244B"></path>
            </g>
        </g>
    </g>
</svg>

<svg xmlns="http://www.w3.org/2000/svg" width="24" height="24"><g fill="none" fill-rule="nonzero"><path d="M24 0v24H0V0h24ZM12.593 23.258l-.011.002-.071.035-.02.004-.014-.004-.071-.035c-.01-.004-.019-.001-.024.005l-.004.01-.017.428.005.02.01.013.104.074.015.004.012-.004.104-.074.012-.016.004-.017-.017-.427c-.002-.01-.009-.017-.017-.018Zm.265-.113-.013.002-.185.093-.01.01-.003.011.018.43.005.012.008.007.201.093c.012.004.023 0 .029-.008l.004-.014-.034-.614c-.003-.012-.01-.02-.02-.022Zm-.715.002a.023.023 0 0 0-.027.006l-.006.014-.034.614c0 .012.007.02.017.024l.015-.002.201-.093.01-.008.004-.011.017-.43-.003-.012-.01-.01-.184-.092Z"/><path fill="#09244B" d="M15.5 5a2.5 2.5 0 0 1 2.461 2.058A2.5 2.5 0 0 1 21 9.5V12a8 8 0 0 1-8 8h-.674a8 8 0 0 1-7.155-4.422L2.329 9.894c-.36-.72-.093-1.683.747-2.028 1.043-.427 2.034-.507 3.055.012.296.15.584.347.869.584V7.5a2.5 2.5 0 0 1 3.388-2.338 2.498 2.498 0 0 1 4.224 0c.276-.105.575-.162.888-.162Z"/></g></svg>
